X: 441
T: Écossaises No 2	 op. 72
C: Fryderyk Chopin
%%abc-version 2.0
%%abcx-abcm2ps-target-version 5.9.1 (29 Sep 2008)
%%abc-creator hum2abc beta
%%abcx-conversion-date 2021/10/03 11:24:10
%%abc-edited-by Jędrzej Mróz
%%abc-edited-by Mateusz Mrugas
%%abcx-initial-encoding-date 2020-05-30
%%humdrum-veritas 138440513
%%humdrum-veritas-data 142624739
%%linebreak <none>
%%barnumbers 0
L: 1/16
M: 2/4
N: Derived from 072-1-MEIf-004-ecossaise.krn
P: TROIS ÉCOSSAISES
%%staves {1 2}
V: 1 clef=treble
V: 2 clef=bass
K: G
[V:1] Bc [I:setbarnb 1]]|:  
[V:2] z2 ]|:  
[V:1] (3dedb2 (3c=dca2 | 
[V:2] G,,4^D,4 & G,,2[D,2B,2] ^D,2[F,2C2] | 
[V:1] (3BcBg2 Aeae' | 
[V:2] E,4C,4 & E,2[G,2B,2] C,2[A,2E2] | 
[V:1] dgbd' g'b'e''d'' | 
[V:2] D,2[K:clef=treble]D2 [B2d2]D2 | 
[V:1] ^c''=c''e'f' a'g'd'b | 
[V:2] [A2=c2]D2 [G2B2] z2[K:clef=bass] | 
[V:1] (3dedb2 (3c=dca2 | 
[V:2] G,,4^D,4 & G,,2[D,2B,2] ^D,2[F,2C2] | 
[V:1] (3BcBg2 Aeae' | 
[V:2] E,4C,4 & E,2[G,2B,2] C,2[A,2E2] | 
[V:1] dgbd' g'b'e''d'' |[1 
[V:2] D,2[K:clef=treble]D2 [G2B2d2]D2 | 
[V:1] c''a'e'f' g'2 Bc |[2 
[V:2] [A2c2]D2 [G2B2] z2 | 
[V:1] =c''a'e'f' g'2 B2 ]|: 
[V:2] [A2c2]D2 [G2B2] z2[K:clef=bass] ]|:  
[V:1] !accent![B4^d4f4b4]!accent![^A4e4f4^a4] | 
[V:2] B,,B,^A,,B,, ^C,^C^B,,C, | 
[V:1] !accent![=A4B4f4=a4]!accent![G4B4e4g4] | 
[V:2] ^D,^D^C,D, E,ED,E, | 
[V:1] [A4B4^d4f4][G4B4e4] | 
[V:2] F,F^E,F, G,GF,G, | 
[V:1] [E4F4^A4][^D4F4B4] | 
[V:2] =C2=DC B,F,^D,B,, | 
[V:1] (3=dedb2 (3cdca2 | 
[V:2] G,,4^D,4 & G,,2[D,2B,2] ^D,2[F,2C2] | 
[V:1] (3BcBg2 Aeae' | 
[V:2] E,4C,4 & E,2[G,2B,2] C,2[A,2E2] | 
[V:1] dgbd' g'b'e''d'' |[1 
[V:2] D,2[K:clef=treble]D2 [B2d2]D2 | 
[V:1] c''a'e'f' g'2 B2 |[2 
[V:2] [A2c2]D2 [G2B2] z2[K:clef=bass] | 
[V:1] c''a'e'f' g'2 z2 |]  
[V:2] [K:clef=treble][A2c2]D2 [G2B2] z2 |]
